X:1
T:Romanzen und Balladen für gemischten Chor
T:Romanze vom Gänsebuben
T:Robert Schumann
T:Aus dem Spanischen von Ernst Friedrich Georg Otto v. d. Malsburg 
T:Romanze vom Gänsebuben
T:Op. 145,5
T:CPDL - Creative Commons Attribution Non Commercial 3.0
T:CPDL - Creative Commons Attribution Non Commercial 3.0
T:CPDL - Creative Commons Attribution Non Commercial 3.0
T:CPDL - Creative Commons Attribution Non Commercial 3.0
T:CPDL - Creative Commons Attribution Non Commercial 3.0
T:CPDL - Creative Commons Attribution Non Commercial 3.0
T:CPDL - Creative Commons Attribution Non Commercial 3.0
T:CPDL - Creative Commons Attribution Non Commercial 3.0
T:CPDL - Creative Commons Attribution Non Commercial 3.0
T:CPDL - Creative Commons Attribution Non Commercial 3.0
T:CPDL - Creative Commons Attribution Non Commercial 3.0
T:CPDL - Creative Commons Attribution Non Commercial 3.0
C:Robert Schumann
Z:Aus dem Spanischen von Ernst Friedrich Georg Otto, Freiherr von der Malsburg
Z:CPDL - Creative Commons Attribution Non Commercial 3.0
%%score 1 [ ( 2 3 4 5 ) ( 6 7 ) ( 8 9 ) ]
L:1/8
Q:1/4=100
M:2/4
K:G
V:1 treble nm="Sopran"
V:2 treble nm="Sopran\nAlt"
V:3 treble 
V:4 treble 
V:5 treble 
V:6 treble-8 nm="Tenor"
V:7 treble-8 
V:8 bass nm="Bass"
V:9 bass 
V:1
"^Munter" z4 | z4 | z4 | z4 | z4 | z4 | z4 | z4 || z4 | z4 | z4 | z4 | z4 | z4 | z4 | z4 | z4 | %17
w: |||||||||||||||||
 z4 | z4 | z4 | z4 | z4 | z4 | z4 | z4 | z4 | z4 | z4 | z4 | z4 | z4 | z4 | z4 | z4 | z4 | z4 | %36
w: |||||||||||||||||||
 z4 | z4 | z4 | z4 || z4 | z4 | z4 | z4 | z4 | z4 | z4 | z4 || z4 | z4 | z4 | z4 | z4 | z4 | z4 | %55
w: |||||||||||||||||||
 z4 | z4 | z4 | z4 | z4 | z4 | z4 | z4 | z4 | z4 | z4 | z4 | z4 | z4 | z4 | z4 | z4 | z4 | z4 | %74
w: |||||||||||||||||||
 z4 | z4 | z4 | z4 | z4 | z4 | z4 | z4 | z4 || z4 | z4 | z4 | z4 | z4 | z4 | z4 | z4 || z4 | z4 | %93
w: |||||||||||||||||||
 z4 | z4 | z4 | z4 | z4 | z4 | z4 | z4 | z4 | z4 | z4 | z4 | z4 | z4 | z4 | z4 | z4 | z4 | z4 | %112
w: |||||||||||||||||||
 z4 | z4 | z4 ||"^Sopran Solo" d4- | d4- | d3 d | b/g/d/B/ d2 | z4 | z4 | z4 | z4 |] %123
w: |||~|_|* wie|flie- * gen sie all',|||||
V:2
!f!"^Chor"!f! Bd ce | dg/g/ fe | de cd | BG/G/ A2 | Bd ce | dg/g/ fe | de cd | BA/A/ G2 || %8
w: Helf' mir Gott, wie|flie- gen die Gän- se,|helf' mir Gott, wie|flie- gen sie all',|helf' mir Gott, wie|flie- gen die Gän- se,|helf' mir Gott, wie|flie- gen sie all'!|
"^Solo"!p!!p! Bd ce | dg fe | d2 c2 | B4 | Bd ce | dg fe | d2 ^c2 | d4 |!f! e!p!=c!f! A!p!B | %17
w: 'S~hü- te- te Ci-|mo- cho, sei- nem|Or- te|nah',|Gän- se- lein und|Sor- gen, ei- ne|bö- se|Schar!|Dass sie fort ihm|
!f! c!p!A!f! F!p!G | A2 ^c2 | d2 ee |!f! e!p!c!f! A!p!B |!f! c!p!A!f! F!p!G | A2 ^c2 | d4 | %24
w: gin- gen, dess' hatt'|er kein|Arg, Leu- te,|Leu- te, die nichts|wis- sen, füh- ren|leicht sich|an!|
!p!!p! dd =c_B | _e2 d2 | cc dd | _B2 BB | dd c_B | _e2 d2 | c2 _B2 | A2 DD | =c2 ^c2 | d2 DD | %34
w: Ba- den in den|Tei- chen|ließ er al- le-|samt, sei- ne|Au- gen gie- ßen|mehr da-|zu als|halb. Wie er|schaut und|sieht hin sie|
 =c2 ^c2 | d2 DD | D>F FF | F>A AA |!<(! d4 | Tf3 e/f/!<)! ||"^Chor"!f! Bd ce | %41
w: flie- gen|all', sagt er|ganz er- schro- cken|ü- ber sol- chen|Fall:|_ _ _|Helf' mir Gott, wie|
"^Instrument change" dg/g/ fe | de cd | BG/G/ A2 | Bd ce | dg/g/ fe | de cd | BA/A/ G2 || %48
w: flie- gen die Gän- se,|helf' mir Gott, wie|flie- gen sie all',|helf' mir Gott, wie|flie- gen die Gän- se,|helf' mir Gott, wie|flie- gen sie all'!|
"^Solo"!p!!p! B2 B2 | Bc c2 | !>!f3 c | c2 B2 | A2 G2 | F2 EE | ^D2 E2 |!<(! F2 ^G2 | A3 A | %57
w: Ach, ihr|mei- * ne|Schmer- zen,|fliegt nicht|ihr ein-|mal aus dem|schwe- ren|Her- zen|ein für|
 ^A2 A2!<)! |!>(! B2!>)!!p!!p! BB | BB AG | G2 F2 | A3 G | E2 ee | ee dc | c2 B2 | d3 c | A2 cc | %67
w: al- le-|mal? Wie nur|tut ihr Wun- der|noch mit|mei- ner|Qual, macht Un-|mög- lich- kei- ten|mög- lich|mir zu-|mal! Fal- sche,|
 BA GF | GA Bc | B2 A2 | G2 ee | dc BA | Bc de | d3 c | B2 BB | ^AA AA | ^AB BB |"^cresc." ^A2 A2 | %78
w: fal- sche Bar- to-|lil- la, freu' dich|jetzt ein-|mal, gibst ja|mir jetz- un- der|nicht al- lein mehr|Qual, mehr|Qual. Und nun|sieht er wie- der,|und er wie- der,|wie- der|
 B2 BB | ^AA AA | B2 B2 | ^A2 A2 |"^kann:___________"!<(! B/c/B/(c/ B/)c/B/c/!<)! || %83
w: sagt, weil er|von der Er- de|nichts mehr|se- hen||
"^Chor mit Solo"!f! Bd ce | dg/g/ fe |"^Chor allein" de cd | BG/G/ A2 | Bd ce | dg/g/ fe | de cd | %90
w: Helf' mir Gott, wie|flie- gen die Gän- se,|helf' mir Gott, wie|flie- gen sie all',|helf' mir Gott, wie|flie- gen die Gän- se,|helf' mir Gott, wie|
 BA/A/ G2 ||"^Solo"!p!!p! Bd ce | dg fe | d2 c2 | B4 | Bd ce | dg fe | d2 ^c2 | d4 | %99
w: flie- gen sie all'!|Mein wild Miss- ge-|schi- cke hängt euch|Flü- gel|an,|a- ber mei- nem|Glü- cke sind sie|ab- ge-|brannt.|
!f! e!p!c!f! A!p!B |!f! c!p!A!f! F!p!G | A2 ^c2 | d2 ee |!f! e!p!=c!f! A!p!B |!f! c!p!A!f! F!p!G | %105
w: Ich geh' fort, Bar-|to- la, denn du|bist mir|ja gleich- falls,|gleich- falls fort- ge-|gan- gen, ei- nem|
 A2 ^c2 | d4 |!p!!p! dd c_B | _e2 d2 | cc dd | _B2 d>d | d>"^cresc."D DD | EE ^FF | G2 =B2 | %114
w: An- dern|nach!|Im- mer macht mich|ban- gen,|was ge- seh'n ich|hab', a- ber,|a- ber dass ihr|flö- get, hab' ich|nicht ge-|
!<(! d/e/d/(e/ d/)e/d/e/!<)! ||!f!"^Solo mit Chor"!f!"^Sopran Chor" Bd ce | dg/g/ fe | de cd | %118
w: dacht. _ _ _ _ _ _ _|Helf' mir Gott, wie|flie- gen die Gän- se,|helf' mir Gott, wie|
 BG/G/ A2 |"^Solo mit Chor" Bd ce | dg/g/ fe | de cd | BA/A/ G2 |] %123
w: flie- gen sie all',|helf' mir Gott, wie|flie- gen die Gän- se,|helf' mir Gott, wie|flie- gen sie all'!|
V:3
 GG FF | Gd/d/ cB | AB GA | GD/D/ F2 | GG GF | Gd/d/ cB | AB EA | GF/F/ G2 || GG FF | Gd cB | %10
w: ||||||||||
 A2 F2 | G4 | GG FF | Gd ^cB | A2 G2 | F4 | =cA FG | AF DE | F2 G2 | F2 =cc | cA FG | AF DE | %22
w: ||||||||||||
 FB AG | F4 | =F_B BB | _B2 B2 | _BB AA | _B2 BB | _BB BB | _B2 =B2 | G2 G2 | ^F2 DD | F2 E2 | %33
w: |||||||||||
 A2 DD | F2 E2 | A2 DD | D>D DD | D>F FF | F4 | Tc4 || GG FF | Gd/d/ cB | AB GA | GD/D/ F2 | %44
w: |||||||||||
 GG GF | Gd/d/ cB | AB EA | GF/F/ G2 || G2 G2 | GA A2 | !>!A3 A | A2 G2 | E2 E2 | ^D2 B,B, | %54
w: ||||||||||
 A,2 B,2 | C2 =F2 | E3 E | E2 E2 | F2 GG | GG FE | C2 C2 | ^D3 D | E2 cc | cc ^GA | A2 A2 | ^G3 G | %66
w: ||||||||||||
 A2 AA | GF E^D | EF GE | ^D2 D2 | E2 cc | BA GF | GA BG | F3 A | G2 GG | GG GG | GG GG | G2 G2 | %78
w: ||||||||||||
 G2 GD | GD GD | GD GD | GD GG | G4 || GG FF | Gd/d/ cB | AB GA | GD/D/ F2 | GG GF | Gd/d/ cB | %89
w: * weil er,|weil er von der|Er- de nichts mehr,|nichts mehr se- hen||||||||
 AB EA | GF/F/ G2 || GG FF | Gd cB | A2 F2 | G4 | GG FF | Gd cB | A2 G2 | F4 | cA FG | AF DE | %101
w: ||||||||||||
 F2 G2 | F2 =cc | cA FG | AF DE | FB AG | F4 | =F_B BB | _B2 B2 | _BB AA | _B2 d>d | d>D DD | %112
w: |||||||||||
 =B,B, CC | =D2 G2 | F4 || GG FF | Gd/d/ cB | AB GA | GD/D/ F2 | GG GF | Gd/d/ cB | AB EA | %122
w: ||||||||||
 GF/F/ G2 |] %123
w: |
V:4
 x4 | x4 | x4 | x4 | x4 | x4 | x4 | x4 || x4 | x4 | x4 | x4 | x4 | x4 | x4 | x4 | x4 | x4 | x4 | %19
 x4 | x4 | x4 | x4 | x4 | x4 | x4 | x4 | x4 | x4 | x4 | x4 | x4 | x4 | x4 | x4 | x4 | x4 | x4 | %38
 x4 | x4 || g x3 | x4 | x4 | x4 | x4 | x4 | x4 | x4 || x4 | x4 | x4 | x4 | x4 | x4 | x4 | x4 | x4 | %57
 x4 | x4 | x4 | x4 | x4 | x4 | x4 | x4 | x4 | x4 | x4 | x4 | x4 | x4 | x4 | x4 | x4 | x4 | x4 | %76
 x4 | x4 | x4 | x4 | x4 | x4 | x4 || x4 | x4 | x4 | x4 | x4 | x4 | x4 | x4 || x4 | x4 | x4 | x4 | %95
 x4 | x4 | x4 | x4 | x4 | x4 | x4 | x4 | x4 | x4 | x4 | x4 | x4 | x4 | x4 | x4 | x4 | x4 | x4 | %114
 x4 || x4 | x4 | x4 | x4 | x4 | x4 | x4 | x4 |] %123
V:5
 x4 | x4 | x4 | x4 | x4 | x4 | x4 | x4 || x4 | x4 | x4 | x4 | x4 | x4 | x4 | x4 | x4 | x4 | x4 | %19
 x4 | x4 | x4 | x4 | x4 | x4 | x4 | x4 | x4 | x4 | x4 | x4 | x4 | x4 | x4 | x4 | x4 | x4 | x4 | %38
 x4 | x4 || B x3 | x4 | x4 | x4 | x4 | x4 | x4 | x4 || x4 | x4 | x4 | x4 | x4 | x4 | x4 | x4 | x4 | %57
 x4 | x4 | x4 | x4 | x4 | x4 | x4 | x4 | x4 | x4 | x4 | x4 | x4 | x4 | x4 | x4 | x4 | x4 | x4 | %76
 x4 | x4 | x4 | x4 | x4 | x4 | x4 || x4 | x4 | x4 | x4 | x4 | x4 | x4 | x4 || x4 | x4 | x4 | x4 | %95
 x4 | x4 | x4 | x4 | x4 | x4 | x4 | x4 | x4 | x4 | x4 | x4 | x4 | x4 | x4 | x4 | x4 | x4 | x4 | %114
 x4 || x4 | x4 | x4 | x4 | x4 | x4 | x4 | x4 |] %123
V:6
!f! dd dd | dd/d/ dd | dd dd | dd/d/ d2 | dd dd | dd/d/ dd | dd dd | dd/d/ B2 ||!p! dd dd | dd dd | %10
w: Helf' mir Gott, wie|flie- gen die Gän- se,|helf' mir Gott, wie|flie- gen sie all',|helf' mir Gott, wie|flie- gen die Gän- se,|helf' mir Gott, wie|flie- gen sie all'!|'S~hü- te- te Ci-|mo- cho, sei- nem|
 d2 d2 | d4 | dd dd | dd dd | de fe | d4 | z2!f!"^Instrument change" e!p!c |!f! A!p!B!f! c!p!A | %18
w: Or- te|nah',|Gän- se- lein und|Sor- gen, ei- ne|bö- * se _|Schar!|Dass sie|fort ihm gin- gen,|
 FF EE | D2 z2 |"^Instrument change" e!p!e!f! e!p!c |!f! A!p!B!f! c!p!A | Fg fe | d4 |!p! d=f _ed | %25
w: dess' hatt' er kein|Arg,|Leu- te, die nichts|wis- sen, füh- ren|leicht _ sich _|an!|Ba- den in den|
 g2 =f2 | gg =ff | dg=f_e | d=f _ed | g2 g2 | _ee =ee | A2 DD | =c2 _B2 | A2 DD | =c2 _B2 | A2 DD | %36
w: Tei- chen|ließ er al- le-|samt, _ _ _|sei- ne Au- gen|gie- ßen|mehr da- zu als|halb. Wie er|schaut und|sieht hin sie|flie- gen|all', sagt er|
 D>A AA | A>A AA |!<(! A4 | d4!<)! ||!f! dd dd |"^Instrument change" dd/d/ dd | dd dd | dd/d/ d2 | %44
w: ganz er- schro- cken|ü- ber sol- chen|Fall:|_|Helf' mir Gott, wie|flie- gen die Gän- se,|helf' mir Gott, wie|flie- gen sie all',|
 dd dd | dd/d/ dd | dd dd | dd/d/ B2 ||!p! G2 G2 | GF F2 | !>!F3 F | F2 G2 | c2 B2 | A2 GG | %54
w: helf' mir Gott, wie|flie- gen die Gän- se,|helf' mir Gott, wie|flie- gen sie all'!|Ach, ihr|mei- * ne|Schmer- zen,|fliegt nicht|ihr ein-|mal aus dem|
 c2 B2 |!<(! A2 d2 | c3 c | e2 e2!<)! |!>(! ^d2!>)! z2 | z4 | z4 | z4 | z2"^Instrument change" ee | %63
w: schwe- ren|Her- zen|ein für|al- le-|mal?||||macht Un-|
 ee =fe | =f2 f2 | B3 d | c2 z2 | z2"^Instrument change" cc | BA GA | FF BB | B2 EE | FF ee | %72
w: mög- lich- kei- ten|mög- lich|mir zu-|mal!|Fal- sche|Bar- to- lil- la,|freu' dich jetzt ein-|mal, gibst ja|mir jetz- un- der|
 dc Bc | A3 d | G2 dd | dd dd | dd dd |"^cresc." ^c2 c2 | d2 dd | dd dd | d2 d2 | dd dd | %82
w: nicht al- lein mehr|Qual, mehr|Qual. Und nun|sieht er wie- der,|und er wie- der,|wie- der|sagt, weil er|von der Er- de|nichts mehr,|nichts mehr se- hen|
!<(! d/e/d/(e/ d/)e/d/e/!<)! ||!f! dd dd | dd/d/ dd | dd dd | dd/d/ d2 | dd dd | dd/d/ dd | dd dd | %90
w: kann: _ _ _ _ _ _ _|Helf' mir Gott, wie|flie- gen die Gän- se,|helf' mir Gott, wie|flie- gen sie all',|helf' mir Gott, wie|flie- gen die Gän- se,|helf' mir Gott, wie|
 dd/d/ B2 ||!p! dd dd | dd dd | d2 d2 | d4 | dd dd | dd dd | de fe | d4 | %99
w: flie- gen sie all'!|Mein wild Miss- ge-|schi- cke hängt euch|Flü- gel|an,|a- ber mei- nem|Glü- cke sind sie|ab- * ge- *|brannt.|
 z2!f!"^Instrument change" e!p!c |!f! A!p!B!f! c!p!A | FF EE | D2 z2 | %103
w: Ich geh'|fort, Bar- to- la,|denn du bist mir|ja|
"^Instrument change" e!p!e!f! e!p!c |!f! A!p!B!f! c!p!A | Fg fe | d4 |!p! d=f _ed | g2 =f2 | %109
w: gleich- falls fort- ge-|gan- gen, ei- nem|An- * dern _|nach!|Im- mer macht mich|ban- gen,|
 gg =ff | d2 d>d | d>"^cresc."D DD | GG AA | B2 ^c2 |!<(! d4!<)! ||!f!"^Solo mit Chor" dd dd | %116
w: was ge- seh'n ich|hab', a- ber,|a- ber dass ihr|flö- get, hab' ich|nicht ge-|dacht.|Helf' mir Gott, wie|
 dd/d/ dd | dd dd | dd/d/ d2 | dd dd | dd/d/ dd | dd dd | dd/d/ B2 |] %123
w: flie- gen die Gän- se,|helf' mir Gott, wie|flie- gen sie all',|helf' mir Gott, wie|flie- gen die Gän- se,|helf' mir Gott, wie|flie- gen sie all'!|
V:7
 x4 | x4 | x4 | x4 | x4 | x4 | x4 | x4 || x4 | x4 | x4 | x4 | x4 | x4 | x4 | x4 | x4 | x4 | x4 | %19
 x4 | x4 | x4 | x4 | x4 | x4 | x4 | x4 | x4 | x4 | x4 | x4 | x4 | x4 | x4 | x4 | x4 | x4 | x4 | %38
 x4 | x4 || d x3 | x4 | x4 | x4 | x4 | x4 | x4 | x4 || x4 | x4 | x4 | x4 | x4 | x4 | x4 | x4 | x4 | %57
 x4 | x4 | x4 | x4 | x4 | x4 | x4 | x4 | x4 | x4 | x4 | x4 | x4 | x4 | x4 | x4 | x4 | x4 | x4 | %76
 x4 | x4 | x4 | x4 | x4 | x4 | x4 || x4 | x4 | x4 | x4 | x4 | x4 | x4 | x4 || x4 | x4 | x4 | x4 | %95
 x4 | x4 | x4 | x4 | x4 | x4 | x4 | x4 | x4 | x4 | x4 | x4 | x4 | x4 | x4 | x4 | x4 | x4 | x4 | %114
 x4 || x4 | x4 | x4 | x4 | x4 | x4 | x4 | x4 |] %123
V:8
!f! G,D, A,D, | B,B,/B,/ A,G, | F,G, E,F, | G,B,/B,/ D2 | G,D, A,D, | B,B,/B,/ A,G, | F,^G, A,F, | %7
w: |||||||
 =G,D,/D,/ G,2 ||!p! G,D, A,D, | B,B, A,G, | F,2 D,2 | G,4 | G,D, A,D, | B,B, A,G, | F,G, A,2 | %15
w: ||||||||
 D,4 | z2!f!"^Instrument change" C!p!A, |!f! F,!p!G,!f! A,!p!F, | D,D, D,D, | D,2 z2 | %20
w: |||||
"^Instrument change" C!p!C!f! C!p!A, |!f! F,!p!G,!f! A,!p!F, | D,2 A,2 | D,4 |!p! _B,,_B, B,B, | %25
w: |||||
 _E,2 _B,2 | _E,E, =F,F, | _B,_EDC | _B,B, B,B, | _E,2 G,2 | C,C, ^C,C, | D,2 D,D, | A,2 G,2 | %33
w: ||||||||
 F,2 D,D, | A,2 G,2 | F,2 D,D, | D,>D, D,D, | D,>D, D,D, |!<(! D,4 | D4!<)! ||!f! G,D, A,D, | %41
w: ||||||||
"^Instrument change" B,B,/B,/ A,G, | F,G, E,F, | G,B,/B,/ D2 | G,D, A,D, | B,B,/B,/ A,G, | %46
w: |||||
 F,^G, A,F, | =G,D,/D,/ G,2 ||!p! E,2 E,2 | E,^D, D,2 | !>!^D,3 D, | ^D,2 E,2 | C2 B,2 | A,2 G,G, | %54
w: ||||||||
 F,2 G,2 |!<(! A,2 B,2 | C3 C | C2 C2!<)! |!>(! B,2!>)!!p! B,B, | E,E, E,E, | A,,2 A,,2 | %61
w: ||||* Wie nur|tut ihr Wun- der|noch mit|
 B,,3 B,, | C,2 C,C, | C,C, C,C, | D,2 D,2 | E,3 E, | A,2 z2 | z2"^Instrument change" A,A, | %68
w: mei- ner|Qual, * *||||||
 G,F, E,A,, | B,,B,, B,,B,, | E,2 C,C, | D,D, CC | B,A, G,C, | D,3 D, | G,2 G,D, | G,D, G,D, | %76
w: ||||||||
 G,D, G,D, | G,"^cresc."D, G,D, | G,2 G,D, | G,D, G,D, | G,D, G,D, | G,D, G,D, |!<(! G,4!<)! || %83
w: |wie- der, wie- der|sagt, weil er,|weil er von der|Er- de nichts mehr,|nichts mehr se- hen|kann:|
!f! G,D, A,D, | B,B,/B,/ A,G, | F,G, E,F, | G,B,/B,/ D2 | G,D, A,D, | B,B,/B,/ A,G, | F,^G, A,F, | %90
w: |||||||
 =G,D,/D,/ G,2 ||!p! G,D, A,D, | B,B, A,G, | F,2 D,2 | G,4 | G,D, A,D, | B,B, A,G, | F,G, A,2 | %98
w: ||||||||
 D,4 | z2!f!"^Instrument change" C!p!A, |!f! F,!p!G,!f! A,!p!F, | D,D, D,D, | D,2 z2 | %103
w: |||||
"^Instrument change" C!p!C!f! C!p!A, |!f! F,!p!G,!f! A,!p!F, | D,2 A,2 | D,4 |!p! _B,,_B, B,B, | %108
w: |||||
 _E,2 _B,2 | _E,E, =F,F, | _B,2 D>D | D>"^cresc."D, D,D, | D,D, D,D, | D,2 D,2 |!<(! D,4!<)! || %115
w: |||||||
!f!"^Solo mit Chor" G,D, A,D, | B,B,/B,/ A,G, | F,G, E,F, | G,B,/B,/ D2 | G,D, A,D, | %120
w: |||||
 B,B,/B,/ A,G, | F,^G, A,F, | =G,D,/D,/ G,2 |] %123
w: |||
V:9
 x4 | x4 | x4 | x4 | x4 | x4 | x4 | x4 || x4 | x4 | x4 | x4 | x4 | x4 | x4 | x4 | x4 | x4 | x4 | %19
 x4 | x4 | x4 | x4 | x4 | x4 | x4 | x4 | x4 | x4 | x4 | x4 | x4 | x4 | x4 | x4 | x4 | x4 | x4 | %38
 x4 | x4 || G, x3 | x4 | x4 | x4 | x4 | x4 | x4 | x4 || x4 | x4 | x4 | x4 | x4 | x4 | x4 | x4 | %56
 x4 | x4 | x4 | x4 | x4 | x4 | x4 | x4 | x4 | x4 | x4 | x4 | x4 | x4 | x4 | x4 | x4 | x4 | x4 | %75
 x4 | x4 | x4 | x4 | x4 | x4 | x4 | x4 || x4 | x4 | x4 | x4 | x4 | x4 | x4 | x4 || x4 | x4 | x4 | %94
 x4 | x4 | x4 | x4 | x4 | x4 | x4 | x4 | x4 | x4 | x4 | x4 | x4 | x4 | x4 | x4 | x4 | x4 | x4 | %113
 x4 | x4 || x4 | x4 | x4 | x4 | x4 | x4 | x4 | x4 |] %123

